krita/pics/Breeze-light/light_folder-pictures.svg

<?xml version="1.0" encoding="UTF-8" standalone="no"?>
<!-- Created with Inkscape (http://www.inkscape.org/) -->

<svg
   xmlns:dc="http://purl.org/dc/elements/1.1/"
   xmlns:cc="http://creativecommons.org/ns#"
   xmlns:rdf="http://www.w3.org/1999/02/22-rdf-syntax-ns#"
   xmlns:svg="http://www.w3.org/2000/svg"
   xmlns="http://www.w3.org/2000/svg"
   xmlns:sodipodi="http://sodipodi.sourceforge.net/DTD/sodipodi-0.dtd"
   xmlns:inkscape="http://www.inkscape.org/namespaces/inkscape"
   width="16"
   height="16"
   id="svg2"
   version="1.1"
   inkscape:version="0.91+devel r"
   viewBox="0 0 16 16"
   sodipodi:docname="folder-pictures.svg">
  <defs
     id="defs4" />
  <sodipodi:namedview
     id="base"
     pagecolor="#ffffff"
     bordercolor="#666666"
     borderopacity="1.0"
     inkscape:pageopacity="0.0"
     inkscape:pageshadow="2"
     inkscape:zoom="44.8"
     inkscape:cx="0.0841482"
     inkscape:cy="7.3148988"
     inkscape:document-units="px"
     inkscape:current-layer="layer1"
     showgrid="true"
     inkscape:showpageshadow="false"
     borderlayer="true"
     units="px"
     inkscape:window-width="1366"
     inkscape:window-height="670"
     inkscape:window-x="-4"
     inkscape:window-y="29"
     inkscape:window-maximized="1"
     showguides="true">
    <inkscape:grid
       type="xygrid"
       id="grid4062" />
    <sodipodi:guide
       position="2,14.000017"
       orientation="12,0"
       id="guide4066" />
    <sodipodi:guide
       position="2,2.0000174"
       orientation="0,12"
       id="guide4068" />
    <sodipodi:guide
       position="14,2.0000174"
       orientation="-12,0"
       id="guide4070" />
    <sodipodi:guide
       position="14,14.000017"
       orientation="0,-12"
       id="guide4072" />
  </sodipodi:namedview>
  <metadata
     id="metadata7">
    <rdf:RDF>
      <cc:Work
         rdf:about="">
        <dc:format>image/svg+xml</dc:format>
        <dc:type
           rdf:resource="http://purl.org/dc/dcmitype/StillImage" />
        <dc:title />
      </cc:Work>
    </rdf:RDF>
  </metadata>
  <g
     inkscape:label="Capa 1"
     inkscape:groupmode="layer"
     id="layer1"
     transform="translate(0,-1036.3622)">
    <path
       style="fill:#d2d2d2;fill-opacity:1;stroke:none"
       d="M 2 2 L 2 14 L 14 14 L 14 2 L 2 2 z M 3 3 L 13 3 L 13 12 L 13 13 L 3 13 L 3 12 L 3 3 z M 3 12 L 5 12 L 7 10 L 6 9 L 3 12 z M 13 12 L 10 9 L 7 12 L 13 12 z M 5.5 4 C 4.669 4 4 4.669 4 5.5 C 4 6.331 4.669 7 5.5 7 C 6.331 7 7 6.331 7 5.5 C 7 4.669 6.331 4 5.5 4 z "
       transform="translate(0,1036.3622)"
       id="rect4122" />
  </g>
</svg>

<!--Created with Inkscape (http://www.inkscape.org/)--><svg xmlns:dc="http://purl.org/dc/elements/1.1/" xmlns:cc="http://creativecommons.org/ns#" xmlns:rdf="http://www.w3.org/1999/02/22-rdf-syntax-ns#" xmlns="http://www.w3.org/2000/svg" xmlns:sodipodi="http://sodipodi.sourceforge.net/DTD/sodipodi-0.dtd" xmlns:inkscape="http://www.inkscape.org/namespaces/inkscape" width="16" height="16" id="svg2" version="1.1" inkscape:version="0.91+devel r" viewBox="0 0 16 16" sodipodi:docname="folder-pictures.svg"><sodipodi:namedview id="base" pagecolor="#ffffff" bordercolor="#666666" borderopacity="1.0" inkscape:pageopacity="0.0" inkscape:pageshadow="2" inkscape:zoom="44.8" inkscape:cx="0.0841482" inkscape:cy="7.3148988" inkscape:document-units="px" inkscape:current-layer="layer1" showgrid="true" inkscape:showpageshadow="false" borderlayer="true" units="px" inkscape:window-width="1366" inkscape:window-height="670" inkscape:window-x="-4" inkscape:window-y="29" inkscape:window-maximized="1" showguides="true"><inkscape:grid type="xygrid" id="grid4062"/><sodipodi:guide position="2,14.000017" orientation="12,0" id="guide4066"/><sodipodi:guide position="2,2.0000174" orientation="0,12" id="guide4068"/><sodipodi:guide position="14,2.0000174" orientation="-12,0" id="guide4070"/><sodipodi:guide position="14,14.000017" orientation="0,-12" id="guide4072"/></sodipodi:namedview><metadata id="metadata7"><rdf:RDF><cc:Work><dc:format>image/svg+xml</dc:format><dc:type rdf:resource="http://purl.org/dc/dcmitype/StillImage"/><dc:title/></cc:Work></rdf:RDF></metadata><g inkscape:label="Capa 1" inkscape:groupmode="layer" id="layer1" transform="translate(0 -1036.362)"><path style="fill:#d2d2d2;fill-opacity:1;stroke:none" d="M2 2v12h12V2H2zm1 1h10v10H3V3zm0 9h2l2-2-1-1-3 3zm10 0-3-3-3 3h6zM5.5 4C4.669 4 4 4.669 4 5.5S4.669 7 5.5 7 7 6.331 7 5.5 6.331 4 5.5 4z" transform="translate(0 1036.362)" id="rect4122"/></g></svg>
